X:1
T:Title
%%score { 1 | 2 }
L:1/8
M:4/4
K:C
V:1 treble nm="Grand Piano"
V:2 bass 
V:1
 z4 z2[Q:1/4=100] [CE][DF] | [EG][EG][EG][FA] [EG]2 Ec | BAA^G A4 | [EG]2 [EG]>[FA] [EG]ECE | %4
 D4 G2 FF | EE[EG][EG] [Ec]2 [EG][EG] | [CFA][CAc][CGB][CFA] [CEG]4 | %7
 [E,C]2 [E,C][K:treble][G,CE] [CEG][K:bass][G,CE][E,C][G,CE] |[M:7/8] [F,B,D]- [F,B,D]3 [E,C]3 | %9
[M:1/8][K:treble] [CEG] |[M:4/4] [Ec]2 [Ec]>[Ec] [Ec]2 [CE][EG] | [FB]2 [FB]>[FB] [FB]4 | %12
 d2 AA B2 F2 | [FA]2 [EG]>[_E^F] [=EG]4 | [CE][EG][EG][EG] [Ec]4 | AAFA [^Fd]4 | c2 B>A GGAB | %17
[M:3/4] d4 [Ec]2 |] %18
V:2
 z4 z2 [C,G,][C,G,] | [C,C][C,C][C,C][C,C] [C,C]2 [C,G,C][E,G,C] | [F,C][F,C][F,C][F,C] [F,CF]4 | %3
 [C,C]2 [C,C]>[C,C] [C,C][C,G,C][C,E,][C,G,C] | [G,B,]4 [G,B,D]2 [G,B,][G,B,] | %5
 [C,G,C][C,G,C][C,C][C,C] [C,G,]2 [C,C][C,C] | F,F,F,F, C,4 | C,2 C,C, C,C,C,C, | %8
[M:7/8] G,,- G,,3 C,3 |[M:1/8] C, |[M:4/4] [C,G,]2 [C,G,]>[C,G,] [C,G,]2 [C,G,][C,C] | %11
 [D,G,]2 [D,G,]>[D,G,] [D,G,]4 | [G,B,F]2 [G,B,F][G,B,F] [G,DF]2 [G,B,D]2 | %13
 [C,C]2 [C,C]>[C,C] [C,C]4 | [C,G,][C,C][C,C][C,C] [C,C]4 | [F,CF][F,CF][F,A,][F,CF] [D,C]4 | %16
 [G,DF]2 [G,DF]>[G,CF] [G,B,F][G,B,F][G,CF][G,DF] |[M:3/4] [G,B,F]4[K:bass] [C,G,C]2 |] %18

